X:1
T:Bottom of the Punch Bowl
S:Trad
F:http://banjolin.co.uk/tunes/abcs/bottomofthepunchbowl_1.abc
O:England
M:4/4
L:1/8
K:D
FE|:D2D2 d3 e|d2D2 FGAF|E2e2 efgf| edcB AGFE|
|D2D2 d3 e|fedc d2 A2|BcdB ABAG|1 F2D2 D2FE:|2 F2D2 D2de|
|:fedB ABde|fedc d2 A2|B2e2e2de|f2e2e2de|
|fedB ABde|faef d2 A2|BcdB ABAG|1 F2D2 D2de:|2 F2D2D2FE|
